icons/wallet.svg

<svg xmlns="http://www.w3.org/2000/svg" xmlns:osb="http://www.openswatchbook.org/uri/2009/osb" id="svg7384" style="enable-background:new" width="22" height="22" version="1.1">
 <defs id="defs7386">
  <style id="current-color-scheme" type="text/css">
   .ColorScheme-Text { color:#d3dae3; } .ColorScheme-Highlight { color:#5294e2; } .ColorScheme-ButtonBackground { color:#d3dae3; }
  </style>
  <linearGradient id="linearGradient5606" osb:paint="solid">
   <stop id="stop5608" style="stop-color:currentColor;stop-opacity:1;" offset="0"/>
  </linearGradient>
 </defs>
 <g id="wallet-open" transform="translate(-467.00009,-135)">
  <path id="rect4188" style="opacity:0;fill:#2b0000;fill-opacity:0.40392157;fill-rule:nonzero;stroke:none;stroke-width:1;stroke-linecap:round;stroke-linejoin:round;stroke-miterlimit:4;stroke-dasharray:none;stroke-dashoffset:0;stroke-opacity:1" d="m 467.0002,135 22,0 0,22 -22,0 z"/>
  <path id="path4166" style="opacity:1;fill:currentColor;fill-opacity:1;stroke:none;stroke-width:2;stroke-miterlimit:4;stroke-dasharray:none;stroke-opacity:1" class="ColorScheme-Text" d="M 7,3 C 5.89201,3 5,3.892 5,5 l 0,12 c 0,1.108 0.89201,2 2,2 l 8,0 c 1.10799,0 2,-0.892 2,-2 L 17,5 C 17,3.892 16.10799,3 15,3 L 7,3 Z m 3,2 2,0 0,9 -2,0 0,-9 z m 0,10 2,0 0,2 -2,0 0,-2 z" transform="translate(467.00009,135)"/>
 </g>
 <g id="wallet-closed" transform="translate(-467.00009,-135)">
  <path id="path4194" style="opacity:1;fill:currentColor;fill-opacity:1;stroke:none;stroke-width:2;stroke-miterlimit:4;stroke-dasharray:none;stroke-opacity:1" class="ColorScheme-Text" d="m 29,3 c -1.10799,0 -2,0.892 -2,2 l 0,12 c 0,1.108 0.89201,2 2,2 l 8,0 c 1.10799,0 2,-0.892 2,-2 L 39,5 C 39,3.892 38.10799,3 37,3 l -8,0 z m 3,5 c 1.108,0 2,1.0422556 2,2.322266 l 0,1.105468 0.5,0 c 0.277,0 0.5,0.255696 0.5,0.572266 l 0,3.427734 C 35,15.744314 34.777,16 34.5,16 l -5,0 C 29.223,16 29,15.744314 29,15.427734 L 29,12 c 0,-0.31657 0.223,-0.572266 0.5,-0.572266 l 0.5,0 0,-1.105468 C 30,9.0417556 30.892,8 32,8 Z m 0,1.1425781 c -0.554,0 -1,0.5094382 -1,1.1425779 l 0,1.142578 2,0 0,-1.142578 C 33,9.6520163 32.554,9.1425781 32,9.1425781 Z" transform="translate(467.00009,135)"/>
  <path id="path4183" style="opacity:0;fill:#2b0000;fill-opacity:0.40392157;fill-rule:nonzero;stroke:none;stroke-width:1;stroke-linecap:round;stroke-linejoin:round;stroke-miterlimit:4;stroke-dasharray:none;stroke-dashoffset:0;stroke-opacity:1" d="m 489.00009,135 22,0 0,22 -22,0 z"/>
 </g>
</svg>

<?xml version="1.0" encoding="UTF-8" standalone="no"?>
<!-- Created with Inkscape (http://www.inkscape.org/) -->

<svg
   xmlns:osb="http://www.openswatchbook.org/uri/2009/osb"
   xmlns:dc="http://purl.org/dc/elements/1.1/"
   xmlns:cc="http://creativecommons.org/ns#"
   xmlns:rdf="http://www.w3.org/1999/02/22-rdf-syntax-ns#"
   xmlns:svg="http://www.w3.org/2000/svg"
   xmlns="http://www.w3.org/2000/svg"
   xmlns:sodipodi="http://sodipodi.sourceforge.net/DTD/sodipodi-0.dtd"
   xmlns:inkscape="http://www.inkscape.org/namespaces/inkscape"
   sodipodi:docname="wallet.svgz"
   inkscape:export-filename="/home/sam/source-symbolic.png"
   inkscape:export-xdpi="270"
   inkscape:export-ydpi="270"
   height="22"
   id="svg7384"
   style="enable-background:new"
   version="1.1"
   inkscape:version="0.91 r13725"
   width="22">
  <sodipodi:namedview
     inkscape:bbox-nodes="true"
     inkscape:bbox-paths="false"
     bordercolor="#ebdbb2"
     borderlayer="false"
     borderopacity="1"
     inkscape:current-layer="layer12"
     inkscape:cx="14.621053"
     inkscape:cy="13.672063"
     gridtolerance="10"
     inkscape:guide-bbox="true"
     guidetolerance="10"
     id="namedview88"
     inkscape:object-nodes="true"
     inkscape:object-paths="true"
     objecttolerance="10"
     pagecolor="#ebdbb2"
     inkscape:pageopacity="0"
     inkscape:pageshadow="2"
     showborder="true"
     showgrid="false"
     showguides="true"
     inkscape:showpageshadow="false"
     inkscape:snap-bbox="true"
     inkscape:snap-bbox-edge-midpoints="false"
     inkscape:snap-bbox-midpoints="true"
     inkscape:snap-center="false"
     inkscape:snap-global="true"
     inkscape:snap-grids="true"
     inkscape:snap-intersection-paths="true"
     inkscape:snap-midpoints="true"
     inkscape:snap-nodes="true"
     inkscape:snap-object-midpoints="true"
     inkscape:snap-others="true"
     inkscape:snap-page="false"
     inkscape:snap-smooth-nodes="true"
     inkscape:snap-to-guides="true"
     inkscape:window-height="845"
     inkscape:window-maximized="1"
     inkscape:window-width="1543"
     inkscape:window-x="57"
     inkscape:window-y="31"
     inkscape:zoom="6.57">
    <inkscape:grid
       color="#ebdbb2"
       dotted="false"
       empcolor="#ebdbb2"
       empopacity="0.4627451"
       empspacing="4"
       enabled="true"
       id="grid4866"
       opacity="0.16470588"
       originx="-225.99989"
       originy="-75.999997"
       snapvisiblegridlinesonly="true"
       spacingx="0.25px"
       spacingy="0.25px"
       type="xygrid"
       visible="true" />
  </sodipodi:namedview>
  <metadata
     id="metadata90">
    <rdf:RDF>
      <cc:Work
         rdf:about="">
        <dc:format>image/svg+xml</dc:format>
        <dc:type
           rdf:resource="http://purl.org/dc/dcmitype/StillImage" />
        <dc:title>Paper Symbolic Icon Theme</dc:title>
      </cc:Work>
    </rdf:RDF>
  </metadata>
  <title
     id="title8473">Paper Symbolic Icon Theme</title>
  <defs
     id="defs7386">
    <linearGradient
       id="linearGradient5606"
       osb:paint="solid">
      <stop
         id="stop5608"
         offset="0"
         style="stop-color:#ebdbb2;stop-opacity:1;" />
    </linearGradient>
    <filter
       id="filter7554"
       inkscape:collect="always"
       style="color-interpolation-filters:sRGB">
      <feBlend
         mode="darken"
         in2="BackgroundImage"
         id="feBlend7556"
         inkscape:collect="always" />
    </filter>
  </defs>
  <g
     inkscape:groupmode="layer"
     id="layer12"
     inkscape:label="actions"
     style="display:inline"
     transform="translate(-467.00009,-135)">
    <g
       id="wallet-open"
       inkscape:label="#g4170">
      <path
         inkscape:connector-curvature="0"
         id="rect4188"
         d="m 467.0002,135 22,0 0,22 -22,0 z"
         style="opacity:0;fill:#ebdbb2;fill-opacity:0.40392157;fill-rule:nonzero;stroke:none;stroke-width:1;stroke-linecap:round;stroke-linejoin:round;stroke-miterlimit:4;stroke-dasharray:none;stroke-dashoffset:0;stroke-opacity:1" />
      <path
         id="path4166"
         transform="translate(467.00009,135)"
         d="M 7 3 C 5.89201 3 5 3.892 5 5 L 5 17 C 5 18.108 5.89201 19 7 19 L 15 19 C 16.10799 19 17 18.108 17 17 L 17 5 C 17 3.892 16.10799 3 15 3 L 7 3 z M 10 5 L 12 5 L 12 14 L 10 14 L 10 5 z M 10 15 L 12 15 L 12 17 L 10 17 L 10 15 z "
         style="opacity:0.72;fill:#ebdbb2;fill-opacity:1;stroke:none;stroke-width:2;stroke-miterlimit:4;stroke-dasharray:none;stroke-opacity:1" />
    </g>
    <g
       style="enable-background:new"
       id="g4151"
       transform="matrix(0,0.875,-0.83333333,0,484.16685,142.00035)">
      <g
         transform="translate(-305.00082,-0.99666589)"
         style="display:inline"
         inkscape:label="actions"
         id="layer12-0" />
    </g>
    <g
       id="layer9"
       inkscape:label="status"
       style="display:inline"
       transform="matrix(0.5,0,0,0.57142857,296.49999,289.85714)" />
    <g
       id="layer10"
       inkscape:label="devices"
       style="display:inline;filter:url(#filter7554)"
       transform="translate(83.1496,342.11852)" />
    <g
       id="layer1"
       inkscape:label="places"
       style="display:inline"
       transform="translate(324.1498,-274.88148)" />
    <g
       id="layer14"
       inkscape:label="mimetypes"
       style="display:inline"
       transform="translate(83.1496,342.11852)" />
    <g
       id="layer15"
       inkscape:label="emblems"
       style="display:inline"
       transform="translate(83.1496,342.11852)" />
    <g
       id="g71291"
       inkscape:label="emotes"
       style="display:inline"
       transform="translate(83.1496,342.11852)" />
    <g
       id="layer2"
       inkscape:label="categories"
       style="display:inline"
       transform="translate(324.1498,-124.88148)" />
    <g
       id="g6058"
       inkscape:label="apps"
       style="display:inline"
       transform="translate(324.1498,-124.88148)" />
    <g
       id="layer12-04"
       inkscape:label="actions"
       style="display:inline"
       transform="translate(83.1496,342.11852)" />
    <g
       transform="matrix(0,0.875,-0.83333333,0,548.30901,152.65484)"
       id="g4197"
       style="enable-background:new">
      <g
         id="g4199"
         inkscape:label="actions"
         style="display:inline"
         transform="translate(-305.00082,-0.99666589)" />
    </g>
    <g
       id="g4222"
       transform="translate(-1.1e-4,-1)" />
    <g
       id="wallet-closed"
       inkscape:label="#g4207">
      <path
         id="path4194"
         transform="translate(467.00009,135)"
         d="M 29 3 C 27.89201 3 27 3.892 27 5 L 27 17 C 27 18.108 27.89201 19 29 19 L 37 19 C 38.10799 19 39 18.108 39 17 L 39 5 C 39 3.892 38.10799 3 37 3 L 29 3 z M 32 8 C 33.108 8 34 9.0422556 34 10.322266 L 34 11.427734 L 34.5 11.427734 C 34.777 11.427734 35 11.68343 35 12 L 35 15.427734 C 35 15.744314 34.777 16 34.5 16 L 29.5 16 C 29.223 16 29 15.744314 29 15.427734 L 29 12 C 29 11.68343 29.223 11.427734 29.5 11.427734 L 30 11.427734 L 30 10.322266 C 30 9.0417556 30.892 8 32 8 z M 32 9.1425781 C 31.446 9.1425781 31 9.6520163 31 10.285156 L 31 11.427734 L 33 11.427734 L 33 10.285156 C 33 9.6520163 32.554 9.1425781 32 9.1425781 z "
         style="opacity:0.72;fill:#ebdbb2;fill-opacity:1;stroke:none;stroke-width:2;stroke-miterlimit:4;stroke-dasharray:none;stroke-opacity:1" />
      <path
         style="opacity:0;fill:#ebdbb2;fill-opacity:0.40392157;fill-rule:nonzero;stroke:none;stroke-width:1;stroke-linecap:round;stroke-linejoin:round;stroke-miterlimit:4;stroke-dasharray:none;stroke-dashoffset:0;stroke-opacity:1"
         d="m 489.00009,135 22,0 0,22 -22,0 z"
         id="path4183"
         inkscape:connector-curvature="0" />
    </g>
  </g>
</svg>
